Dominus_Dark_Funeral/symbolic/actions/document-properties-symbolic.svg

<svg xmlns="http://www.w3.org/2000/svg" width="24" height="24" version="1"><path fill="gray" d="M10.17.605c-.23.004-.373.232-.354.649l.073 1.582c.03.667-.478 1.1-1.131.963L5.25 3.063c-.653-.138-.892.211-.531.773l.857 1.336c.36.562.137 1.19-.498 1.398L1.672 7.684c-.635.207-.667.629-.074.935l1.408.729c.593.306.715.963.27 1.46L.884 13.478c-.446.497-.265.878.402.847l1.584-.072c.667-.03 1.1.48.963 1.133L3.1 18.889c-.138.653.21.891.771.53l1.338-.857c.562-.36 1.193-.136 1.4.499l1.114 3.404c.207.634.628.667.935.074l.729-1.408c.307-.593.965-.713 1.463-.268l2.668 2.389c.497.445.88.264.85-.402l-.075-1.584c-.03-.667.48-1.1 1.133-.963l3.506.736c.653.137.893-.212.533-.773l-.858-1.336c-.36-.562-.136-1.191.498-1.399l3.405-1.113c.634-.207.669-.629.076-.936l-1.41-.728c-.593-.307-.713-.964-.268-1.461l2.389-2.668c.445-.497.264-.878-.402-.848l-1.584.073c-.667.03-1.1-.48-.963-1.133l.736-3.504c.137-.653-.211-.892-.773-.531l-1.338.857c-.562.36-1.191.136-1.399-.498l-1.113-3.402c-.208-.635-.629-.67-.936-.077l-.728 1.409c-.307.593-.966.712-1.463.267L10.666.85c-.187-.167-.358-.246-.496-.245zm1.807 10.143a1.36 1.36 0 1 1-.002 2.72 1.36 1.36 0 0 1 .002-2.72z"/></svg>

<?xml version="1.0" encoding="UTF-8" standalone="no"?>
<svg
   xmlns:dc="http://purl.org/dc/elements/1.1/"
   xmlns:cc="http://creativecommons.org/ns#"
   xmlns:rdf="http://www.w3.org/1999/02/22-rdf-syntax-ns#"
   xmlns:svg="http://www.w3.org/2000/svg"
   xmlns="http://www.w3.org/2000/svg"
   xmlns:sodipodi="http://sodipodi.sourceforge.net/DTD/sodipodi-0.dtd"
   xmlns:inkscape="http://www.inkscape.org/namespaces/inkscape"
   width="24"
   height="24"
   version="1"
   id="svg4"
   sodipodi:docname="document-properties-symbolic.svg"
   inkscape:version="0.92.4 (5da689c313, 2019-01-14)">
  <metadata
     id="metadata10">
    <rdf:RDF>
      <cc:Work
         rdf:about="">
        <dc:format>image/svg+xml</dc:format>
        <dc:type
           rdf:resource="http://purl.org/dc/dcmitype/StillImage" />
        <dc:title></dc:title>
      </cc:Work>
    </rdf:RDF>
  </metadata>
  <defs
     id="defs8" />
  <sodipodi:namedview
     pagecolor="#ffffff"
     bordercolor="#666666"
     borderopacity="1"
     objecttolerance="10"
     gridtolerance="10"
     guidetolerance="10"
     inkscape:pageopacity="0"
     inkscape:pageshadow="2"
     inkscape:window-width="1112"
     inkscape:window-height="480"
     id="namedview6"
     showgrid="false"
     inkscape:zoom="9.8333333"
     inkscape:cx="1.0677966"
     inkscape:cy="12"
     inkscape:window-x="0"
     inkscape:window-y="25"
     inkscape:window-maximized="0"
     inkscape:current-layer="svg4" />
  <path
     d="M 10.17,0.605 C 9.94,0.609 9.797,0.837 9.816,1.254 l 0.073,1.582 c 0.03,0.667 -0.478,1.1 -1.131,0.963 L 5.25,3.063 C 4.597,2.925 4.358,3.274 4.719,3.836 L 5.576,5.172 C 5.936,5.734 5.713,6.362 5.078,6.57 L 1.672,7.684 C 1.037,7.891 1.005,8.313 1.598,8.619 l 1.408,0.729 c 0.593,0.306 0.715,0.963 0.27,1.46 l -2.392,2.67 c -0.446,0.497 -0.265,0.878 0.402,0.847 L 2.87,14.253 c 0.667,-0.03 1.1,0.48 0.963,1.133 L 3.1,18.889 c -0.138,0.653 0.21,0.891 0.771,0.53 l 1.338,-0.857 c 0.562,-0.36 1.193,-0.136 1.4,0.499 l 1.114,3.404 c 0.207,0.634 0.628,0.667 0.935,0.074 l 0.729,-1.408 c 0.307,-0.593 0.965,-0.713 1.463,-0.268 l 2.668,2.389 c 0.497,0.445 0.88,0.264 0.85,-0.402 l -0.075,-1.584 c -0.03,-0.667 0.48,-1.1 1.133,-0.963 l 3.506,0.736 c 0.653,0.137 0.893,-0.212 0.533,-0.773 L 18.607,18.93 c -0.36,-0.562 -0.136,-1.191 0.498,-1.399 l 3.405,-1.113 c 0.634,-0.207 0.669,-0.629 0.076,-0.936 l -1.41,-0.728 C 20.583,14.447 20.463,13.79 20.908,13.293 l 2.389,-2.668 C 23.742,10.128 23.561,9.747 22.895,9.777 L 21.311,9.85 C 20.644,9.88 20.211,9.37 20.348,8.717 L 21.084,5.213 C 21.221,4.56 20.873,4.321 20.311,4.682 L 18.973,5.539 C 18.411,5.899 17.782,5.675 17.574,5.041 L 16.461,1.639 C 16.253,1.004 15.832,0.969 15.525,1.562 L 14.797,2.971 C 14.49,3.564 13.831,3.683 13.334,3.238 L 10.666,0.85 C 10.479,0.683 10.308,0.604 10.17,0.605 Z m 1.807,10.143 a 1.3600004,1.3600004 0 1 1 -0.002,2.72 1.3600004,1.3600004 0 0 1 0.002,-2.72 z"
     id="path2"
     inkscape:connector-curvature="0"
     style="fill:#808080" />
</svg>
